utils/icons-generator/ic_input_status.svg

<?xml version="1.0" encoding="UTF-8"?>
<svg xmlns="http://www.w3.org/2000/svg" xmlns:xlink="http://www.w3.org/1999/xlink" width="1000pt" height="1000pt" viewBox="0 0 1000 1000" version="1.1">
<g id="surface1">
<path style=" stroke:none;fill-rule:nonzero;fill:rgb(0%,0%,0%);fill-opacity:1;" d="M 794.582031 205.417969 L 735.832031 264.167969 C 795.832031 324.582031 833.332031 407.917969 833.332031 500 C 833.332031 684.167969 684.167969 833.332031 500 833.332031 C 315.832031 833.332031 166.667969 684.167969 166.667969 500 C 166.667969 330 293.75 190 458.332031 169.582031 L 458.332031 253.75 C 340 273.75 250 376.25 250 500 C 250 637.917969 362.082031 750 500 750 C 637.917969 750 750 637.917969 750 500 C 750 430.832031 722.082031 368.332031 676.667969 323.332031 L 617.917969 382.082031 C 647.917969 412.5 666.667969 454.167969 666.667969 500 C 666.667969 592.082031 592.082031 666.667969 500 666.667969 C 407.917969 666.667969 333.332031 592.082031 333.332031 500 C 333.332031 422.5 386.667969 357.917969 458.332031 339.167969 L 458.332031 428.332031 C 433.332031 442.917969 416.667969 469.167969 416.667969 500 C 416.667969 545.832031 454.167969 583.332031 500 583.332031 C 545.832031 583.332031 583.332031 545.832031 583.332031 500 C 583.332031 469.167969 566.667969 442.5 541.667969 428.332031 L 541.667969 83.332031 L 500 83.332031 C 270 83.332031 83.332031 270 83.332031 500 C 83.332031 730 270 916.667969 500 916.667969 C 730 916.667969 916.667969 730 916.667969 500 C 916.667969 385 870 280.832031 794.582031 205.417969 Z M 794.582031 205.417969 "/>
</g>
</svg>

<?xml version="1.0" encoding="UTF-8" standalone="no"?>
<svg
   xmlns:dc="http://purl.org/dc/elements/1.1/"
   xmlns:cc="http://creativecommons.org/ns#"
   xmlns:rdf="http://www.w3.org/1999/02/22-rdf-syntax-ns#"
   xmlns:svg="http://www.w3.org/2000/svg"
   xmlns="http://www.w3.org/2000/svg"
   xmlns:sodipodi="http://sodipodi.sourceforge.net/DTD/sodipodi-0.dtd"
   xmlns:inkscape="http://www.inkscape.org/namespaces/inkscape"
   width="1000pt"
   height="1000pt"
   viewBox="0 0 1000 1000"
   version="1.1"
   id="svg566"
   sodipodi:docname="ic_input_status.svg"
   inkscape:version="0.92.4 (5da689c313, 2019-01-14)">
  <metadata
     id="metadata572">
    <rdf:RDF>
      <cc:Work
         rdf:about="">
        <dc:format>image/svg+xml</dc:format>
        <dc:type
           rdf:resource="http://purl.org/dc/dcmitype/StillImage" />
      </cc:Work>
    </rdf:RDF>
  </metadata>
  <defs
     id="defs570" />
  <sodipodi:namedview
     pagecolor="#ffffff"
     bordercolor="#666666"
     borderopacity="1"
     objecttolerance="10"
     gridtolerance="10"
     guidetolerance="10"
     inkscape:pageopacity="0"
     inkscape:pageshadow="2"
     inkscape:window-width="2560"
     inkscape:window-height="1346"
     id="namedview568"
     showgrid="false"
     inkscape:zoom="0.177"
     inkscape:cx="666.66667"
     inkscape:cy="666.66667"
     inkscape:window-x="-11"
     inkscape:window-y="-11"
     inkscape:window-maximized="1"
     inkscape:current-layer="svg566" />
  <g
     id="surface1"
     transform="matrix(1.1969962,0,0,1.1969962,-98.498116,-98.498116)">
    <path
       style="fill:#000000;fill-opacity:1;fill-rule:nonzero;stroke:none"
       d="m 794.58203,205.41797 -58.75,58.75 c 60,60.41406 97.5,143.75 97.5,235.83203 0,184.16797 -149.16406,333.33203 -333.33203,333.33203 -184.16797,0 -333.33203,-149.16406 -333.33203,-333.33203 0,-170 127.08203,-310 291.66406,-330.41797 V 253.75 C 340,273.75 250,376.25 250,500 c 0,137.91797 112.08203,250 250,250 137.91797,0 250,-112.08203 250,-250 0,-69.16797 -27.91797,-131.66797 -73.33203,-176.66797 l -58.75,58.75 c 30,30.41797 48.75,72.08594 48.75,117.91797 0,92.08203 -74.58594,166.66797 -166.66797,166.66797 -92.08203,0 -166.66797,-74.58594 -166.66797,-166.66797 0,-77.5 53.33594,-142.08203 125,-160.83203 v 89.16406 c -25,14.58594 -41.66406,40.83594 -41.66406,71.66797 0,45.83203 37.5,83.33203 83.33203,83.33203 45.83203,0 83.33203,-37.5 83.33203,-83.33203 0,-30.83203 -16.66406,-57.5 -41.66406,-71.66797 V 83.332031 H 500 C 270,83.332031 83.332031,270 83.332031,500 83.332031,730 270,916.66797 500,916.66797 730,916.66797 916.66797,730 916.66797,500 916.66797,385 870,280.83203 794.58203,205.41797 Z m 0,0"
       id="path563"
       inkscape:connector-curvature="0" />
  </g>
</svg>
